icons/solid/newspaper.svg

<svg width="24" height="24" viewBox="0 0 24 24" fill="none" xmlns="http://www.w3.org/2000/svg">
<path fill-rule="evenodd" clip-rule="evenodd" d="M5 3C3.34315 3 2 4.34315 2 6V18C2 19.6569 3.34315 21 5 21H19C19.4934 21 20.2111 20.8602 20.8343 20.4115C21.5085 19.9261 22 19.1259 22 18V10.9984C22 9.34051 20.6558 8 19 8V15.5C19 15.7761 18.7761 16 18.5 16C18.2239 16 18 15.7761 18 15.5V8V6.5V6C18 4.34315 16.6569 3 15 3H5ZM7 7C6.44772 7 6 7.44772 6 8V12C6 12.5523 6.44772 13 7 13H13C13.5523 13 14 12.5523 14 12V8C14 7.44772 13.5523 7 13 7H7ZM7 15C6.44772 15 6 15.4477 6 16C6 16.5523 6.44772 17 7 17H13C13.5523 17 14 16.5523 14 16C14 15.4477 13.5523 15 13 15H7Z" fill="currentColor"/>
</svg>

<svg width="24" height="24" fill="none" xmlns="http://www.w3.org/2000/svg"><path fill-rule="evenodd" clip-rule="evenodd" d="M5 3a3 3 0 00-3 3v12a3 3 0 003 3h14c.493 0 1.211-.14 1.834-.588C21.51 19.925 22 19.125 22 18v-7.002A2.999 2.999 0 0019 8v7.5a.5.5 0 01-1 0V6a3 3 0 00-3-3H5zm2 4a1 1 0 00-1 1v4a1 1 0 001 1h6a1 1 0 001-1V8a1 1 0 00-1-1H7zm0 8a1 1 0 100 2h6a1 1 0 100-2H7z" fill="currentColor"/></svg>
